src/icons/main-tags.svg

<svg enable-background="new 0 0 14 14" viewBox="0 0 14 14" xmlns="http://www.w3.org/2000/svg"><path d="m7 0c-.1 0-.1 0-.2 0-.2 0-.4.1-.6.3l-6 6c-.3.3-.3.8 0 1.1l1.8 1.7 4.6 4.6c.3.3.8.3 1.1 0l6-6c.2-.1.3-.3.3-.5s0-.4 0-.5v-.1-.1c0-.1 0-.2 0-.3 0-.4 0-.9 0-1.3 0-1 0-1.9 0-2 0-.5-.4-1-1-1h-.9v-.9c0-.5-.4-1-1-1h-3.8c-.1 0-.2 0-.3 0zm0 .6h.3 3.9c.2 0 .4.2.4.4v.9h-1.1c-.3-.3-.5-.4-.8-.4s-.4.1-.6.3c-.1 0-.3 0-.5 0-.2.1-.4.1-.6.3l-6 6s-.1.1-.1.2l-1.2-1.4c-.1-.1-.1-.2 0-.3l6-6s.1-.1.2-.1c0 .1.1.1.1.1zm1.9 1.8h4.1c.2 0 .4.2.4.4v2 1.3.4.1s0 0 0 0v.5s0 .2-.1.2l-6 6c-.1.1-.2.1-.3 0l-4.5-4.5c-.1-.1-.1-.2 0-.3l6-6s.1-.1.2-.1zm2.7.9c-.2 0-.5.1-.6.3-.4.4-.4.9 0 1.3s.9.4 1.3 0 .4-.9 0-1.3c-.3-.2-.5-.3-.7-.3zm0 .7c.1 0 .2 0 .2.1.1.1.1.3 0 .4s-.3.1-.4 0-.1-.3 0-.4c0-.1.1-.1.2-.1z" fill="#4d5969"/></svg>

<?xml version="1.0" encoding="utf-8"?>
<!-- Generator: Adobe Illustrator 20.1.0, SVG Export Plug-In . SVG Version: 6.00 Build 0)  -->
<svg version="1.1" id="Layer_1" xmlns="http://www.w3.org/2000/svg" xmlns:xlink="http://www.w3.org/1999/xlink" x="0px" y="0px"
	 viewBox="0 0 14 14" style="enable-background:new 0 0 14 14;" xml:space="preserve">
<style type="text/css">
	.st0{fill:#4D5969;}
</style>
<title>HDL/Icon/Standard/tags</title>
<desc>Created with Sketch.</desc>
<g id="Colors">
	<g id="Main-Icons" transform="translate(-1122.000000, -1252.000000)">
		<g id="Tags" transform="translate(1100.000000, 1234.000000)">
			<g id="HDL_x2F_Icon_x2F_Standard_x2F_icons" transform="translate(22.000000, 18.000000)">
				<path id="Shape" class="st0" d="M7,0C6.9,0,6.9,0,6.8,0C6.6,0,6.4,0.1,6.2,0.3l-6,6c-0.3,0.3-0.3,0.8,0,1.1L2,9.1c0,0,0,0,0,0
					c0,0,0,0,0,0c0,0,0,0,0,0c0,0,0,0,0,0l4.6,4.6c0.3,0.3,0.8,0.3,1.1,0l6-6C13.9,7.6,14,7.4,14,7.2c0-0.2,0-0.4,0-0.5v0
					c0,0,0-0.1,0-0.1c0,0,0-0.1,0-0.1c0-0.1,0-0.2,0-0.3c0-0.4,0-0.9,0-1.3c0-1,0-1.9,0-2c0-0.5-0.4-1-1-1h-0.9V1c0-0.5-0.4-1-1-1
					H7.3C7.2,0,7.1,0,7,0z M7,0.6c0.1,0,0.2,0,0.3,0h3.9c0.2,0,0.4,0.2,0.4,0.4v0.9h-1.1c0,0,0,0,0,0C10.2,1.6,10,1.5,9.7,1.5
					S9.3,1.6,9.1,1.8c0,0,0,0,0,0c-0.1,0-0.3,0-0.5,0C8.4,1.9,8.2,1.9,8,2.1l-6,6c0,0-0.1,0.1-0.1,0.2L0.7,6.9
					c-0.1-0.1-0.1-0.2,0-0.3l6-6c0,0,0.1-0.1,0.2-0.1C6.9,0.6,7,0.6,7,0.6z M8.9,2.4H13c0.2,0,0.4,0.2,0.4,0.4c0,0,0,1,0,2
					c0,0.5,0,1,0,1.3c0,0.2,0,0.3,0,0.4c0,0.1,0,0.1,0,0.1c0,0,0,0,0,0s0,0,0,0c0,0.2,0,0.4,0,0.5s0,0.2-0.1,0.2l-6,6
					c-0.1,0.1-0.2,0.1-0.3,0L2.5,8.8c-0.1-0.1-0.1-0.2,0-0.3l6-6c0,0,0.1-0.1,0.2-0.1C8.7,2.4,8.8,2.4,8.9,2.4z M11.6,3.3
					c-0.2,0-0.5,0.1-0.6,0.3c-0.4,0.4-0.4,0.9,0,1.3s0.9,0.4,1.3,0c0.4-0.4,0.4-0.9,0-1.3C12,3.4,11.8,3.3,11.6,3.3z M11.6,4
					c0.1,0,0.2,0,0.2,0.1c0.1,0.1,0.1,0.3,0,0.4c-0.1,0.1-0.3,0.1-0.4,0c-0.1-0.1-0.1-0.3,0-0.4C11.4,4,11.5,4,11.6,4z"/>
			</g>
		</g>
	</g>
</g>
</svg>
